X:139
U: ~ = !turn!
%%topmargin 3cm
T:Murphy's Hornpipe
B:Traditional Irish Fiddle Tunes. Randy Miller and Jack Perron.
S:Andy McGann
Z:Transcribed by Ralph Palmer
R:Hornpipe
M:C|
L:1/8
K:D
((3ABc) | d2 AF d2 AF | dcdf ec A2 | ((3faf) df gfed | ((3cdc) A^G A2 ((3ABc) |
d2 AF d2 AF | dcdf ec A2 | ((3faf) df gfec | df ((3edc) d2 :|
fg | afdg faga | bged cdeg | fa (3.a.a.a bged | ((3cdc) A^G A2 fg |
afdg faga | bged cdeg | fa (3.a.a.a bgec | df ((3edc) d2 fg |
afdg faga | bged cdeg | fa (3.a.a.a bged ((3cdc) A^G A2 ((3ABc) |
d2 AF d2 AF | dcdg ec A2 | ((3faf) df gfec | df ((3edc) d2 ||
|:AG | ((3FGF) D2 ((3faf) ec | dcdf ecAG | ((3FGF) D2 ((3faf) ec | df ((3edc) d2 AG |
((3FGF) D2 ((3faf) ec | dcdf ec A2 | ((3faf) df gfec | df ((3edc) d2 :|
ag | fefd gf ((3gfe) | {/g}fefd ec A2 | ((3faf) df gfed ((3cdc) A^G A2 ((3ABc)|
d2 AF d2 AF | dcdf ec A2 | ((3faf) df gfec | df ((3edc) d2 ag |
fefd gf ((3gfe) | {/g}fefd ec A2 | ((3faf) df gfed | ((3cdc) A^G A2 ((3ABc) |
dcdf eceg | fdfa gfge | fgaf gfec | dfec d2 |]
